; generated by Slic3r 1.35.5-prusa3d-win64 on 2017-07-02 at 22:11:36

; 

; external perimeters extrusion width = 0.40mm
; perimeters extrusion width = 0.40mm
; infill extrusion width = 0.40mm
; solid infill extrusion width = 0.40mm
; top infill extrusion width = 0.40mm
; support material extrusion width = 0.40mm
; first layer extrusion width = 0.60mm

M107
M190 S55 ; set bed temperature and wait for it to be reached
M104 S220 ; set temperature
G28 ; home all axes
G1 Z5 F5000 ; lift nozzle

; Filament gcode

M109 S220 ; set temperature and wait for it to be reached
G21 ; set units to millimeters
G90 ; use absolute coordinates
M82 ; use absolute distances for extrusion
G92 E0
G1 Z0.200 F6000.000
G10 ; retract
G92 E0
G1 X7.376 Y15.709 F6000.000
G11 ; unretract
G92 E0
M204 S2000
G1 F1800
G1 X9.315 Y15.041 E0.05846
G1 X11.346 Y14.756 E0.11691
G1 X79.495 Y14.745 E2.05939
G1 X81.385 Y14.915 E2.11349
G1 X83.223 Y15.418 E2.16781
G1 X84.936 Y16.235 E2.22191
G1 X86.484 Y17.346 E2.27624
G1 X87.811 Y18.715 E2.33056
G1 X88.871 Y20.289 E2.38466
G1 X89.636 Y22.026 E2.43875
G1 X90.083 Y23.879 E2.49308
G1 X94.658 Y78.520 E4.05600
G1 X94.660 Y89.347 E4.36462
G1 X94.521 Y90.957 E4.41068
G1 X94.144 Y92.520 E4.45650
G1 X93.541 Y94.002 E4.50210
G1 X92.725 Y95.377 E4.54770
G1 X91.712 Y96.616 E4.59329
G1 X90.552 Y97.670 E4.63797
G1 X89.251 Y98.543 E4.68265
G1 X87.836 Y99.217 E4.72732
G1 X86.337 Y99.678 E4.77200
G1 X85.303 Y99.862 E4.80195
G1 X84.255 Y99.944 E4.83190
G1 X77.171 Y99.943 E5.03382
G1 X10.908 Y96.661 E6.92488
G1 X9.125 Y96.355 E6.97645
G1 X7.425 Y95.758 E7.02779
G1 X5.850 Y94.884 E7.07913
G1 X4.438 Y93.754 E7.13070
G1 X3.697 Y92.975 E7.16135
G1 X3.032 Y92.119 E7.19222
G1 X2.462 Y91.208 E7.22286
G1 X1.982 Y90.237 E7.25374
G1 X1.603 Y89.222 E7.28461
G1 X1.330 Y88.183 E7.31525
G1 X1.163 Y87.121 E7.34590
G1 X1.102 Y86.039 E7.37677
G1 X1.113 Y24.991 E9.11688
G1 X1.367 Y23.094 E9.17144
G1 X1.958 Y21.265 E9.22622
G1 X2.861 Y19.577 E9.28078
G1 X4.051 Y18.078 E9.33533
G1 X5.600 Y16.733 E9.39379
G1 X7.324 Y15.739 E9.45054
G1 X7.502 Y16.048 F6000.000
G1 F1800
G1 X9.420 Y15.383 E9.50839
G1 X11.378 Y15.112 E9.56474
G1 X79.494 Y15.102 E11.50631
G1 X81.329 Y15.268 E11.55882
G1 X83.106 Y15.755 E11.61133
G1 X84.767 Y16.550 E11.66383
G1 X86.262 Y17.626 E11.71634
G1 X87.543 Y18.951 E11.76885
G1 X88.565 Y20.474 E11.82113
G1 X89.304 Y22.161 E11.87364
G1 X89.733 Y23.953 E11.92615
G1 X94.301 Y78.515 E13.48681
G1 X94.303 Y89.345 E13.79552
G1 X94.173 Y90.873 E13.83922
G1 X93.809 Y92.395 E13.88382
G1 X93.224 Y93.838 E13.92820
G1 X92.429 Y95.176 E13.97257
G1 X91.437 Y96.386 E14.01718
G1 X90.312 Y97.404 E14.06042
G1 X89.043 Y98.250 E14.10390
G1 X87.671 Y98.898 E14.14714
G1 X86.212 Y99.340 E14.19062
G1 X84.226 Y99.587 E14.24764
G1 X77.169 Y99.585 E14.44879
G1 X10.948 Y96.306 E16.33865
G1 X9.218 Y96.011 E16.38868
G1 X7.562 Y95.428 E16.43870
G1 X6.029 Y94.574 E16.48873
G1 X4.662 Y93.474 E16.53875
G1 X3.951 Y92.724 E16.56820
G1 X3.315 Y91.900 E16.59787
G1 X2.764 Y91.017 E16.62755
G1 X2.304 Y90.082 E16.65722
G1 X1.941 Y89.107 E16.68690
G1 X1.678 Y88.099 E16.71658
G1 X1.516 Y87.071 E16.74625
G1 X1.459 Y86.031 E16.77593
G1 X1.469 Y25.022 E18.51491
G1 X1.713 Y23.180 E18.56787
G1 X2.286 Y21.405 E18.62105
G1 X3.168 Y19.760 E18.67424
G1 X4.326 Y18.307 E18.72720
G1 X5.821 Y17.014 E18.78354
G1 X7.450 Y16.078 E18.83709
G10 ; retract
G92 E0
G1 X77.519 Y89.234 F6000.000
G11 ; unretract
G92 E0
G1 F1800
G1 X77.519 Y86.363 E0.08182
G1 X78.233 Y86.363 E0.10218
G1 X78.233 Y89.073 E0.17942
G1 X78.947 Y89.073 E0.19978
G1 X78.947 Y86.363 E0.27702
G1 X79.643 Y86.363 E0.29685
G1 X79.662 Y86.345 E0.29759
G1 X79.662 Y89.073 E0.37535
G1 X80.376 Y89.073 E0.39571
G1 X80.376 Y78.759 E0.68970
G1 X81.090 Y78.759 E0.71005
G1 X81.090 Y89.073 E1.00404
G1 X81.804 Y89.073 E1.02439
G1 X81.804 Y78.759 E1.31838
G1 X82.518 Y78.759 E1.33874
G1 X82.518 Y89.073 E1.63272
G1 X83.232 Y89.073 E1.65308
G1 X83.232 Y78.759 E1.94707
G1 X83.947 Y78.759 E1.96742
G1 X83.947 Y89.234 E2.26599
G10 ; retract
G92 E0
G1 X57.835 Y70.555 F6000.000
G11 ; unretract
G92 E0
G1 F1800
G1 X65.207 Y70.555 E0.21012
G1 X65.207 Y70.925 E0.22065
G1 X65.553 Y70.727 E0.23201
G1 X65.972 Y70.570 E0.24477
G1 X66.460 Y70.476 E0.25893
G1 X66.895 Y70.452 E0.27136
G1 X67.603 Y70.499 E0.29158
G1 X68.277 Y70.669 E0.31140
G1 X68.277 Y70.555 E0.31464
G1 X77.183 Y70.555 E0.56849
G1 X77.183 Y76.424 E0.73576
G1 X74.627 Y76.424 E0.80863
G1 X73.989 Y76.382 E0.82683
G1 X73.631 Y76.302 E0.83730
G1 X73.301 Y76.168 E0.84745
G1 X72.816 Y75.843 E0.86410
G1 X72.816 Y76.424 E0.88066
G1 X68.277 Y76.424 E1.01003
G1 X68.277 Y76.087 E1.01961
G1 X67.823 Y76.326 E1.03423
G1 X67.373 Y76.460 E1.04761
G1 X66.691 Y76.530 E1.06717
G1 X65.928 Y76.464 E1.08899
G1 X65.207 Y76.283 E1.11020
G1 X65.207 Y76.424 E1.11420
G1 X56.659 Y76.424 E1.35785
G1 X56.659 Y73.828 E1.43183
G1 X57.835 Y73.828 E1.46535
G1 X57.835 Y70.615 E1.55693
G1 X58.192 Y70.912 F6000.000
G1 F1800
G1 X60.329 Y70.912 E1.61784
G1 X60.329 Y74.185 E1.71113
G1 X61.178 Y74.185 E1.73535
G1 X61.178 Y72.794 E1.77502
G1 X61.025 Y72.794 E1.77939
G1 X61.025 Y70.912 E1.83301
G1 X64.849 Y70.912 E1.94202
G1 X64.849 Y71.774 E1.96660
G1 X65.159 Y71.426 E1.97987
G1 X65.415 Y71.217 E1.98932
G1 X65.705 Y71.051 E1.99883
G1 X66.069 Y70.915 E2.00990
G1 X66.503 Y70.831 E2.02252
G1 X66.893 Y70.810 E2.03364
G1 X67.547 Y70.853 E2.05233
G1 X68.150 Y71.005 E2.07006
G1 X68.634 Y71.192 E2.08484
G1 X68.634 Y70.912 E2.09281
G1 X74.099 Y70.912 E2.24857
G1 X74.543 Y71.505 E2.26968
G1 X74.689 Y71.457 E2.27409
G1 X74.689 Y70.912 E2.28960
G1 X76.826 Y70.912 E2.35051
G1 X76.826 Y76.067 E2.49742
G1 X74.638 Y76.067 E2.55978
G1 X74.041 Y76.027 E2.57686
G1 X73.738 Y75.959 E2.58570
G1 X73.469 Y75.851 E2.59397
G1 X73.113 Y75.612 E2.60619
G1 X72.926 Y75.414 E2.61395
G1 X72.777 Y75.195 E2.62150
G1 X72.634 Y74.824 E2.63284
G1 X72.459 Y74.856 E2.63792
G1 X72.459 Y76.067 E2.67242
G1 X68.634 Y76.067 E2.78144
G1 X68.634 Y75.280 E2.80386
G1 X68.396 Y75.545 E2.81403
G1 X68.131 Y75.761 E2.82377
G1 X67.688 Y75.994 E2.83804
G1 X67.304 Y76.108 E2.84947
G1 X66.688 Y76.171 E2.86711
G1 X65.987 Y76.111 E2.88716
G1 X65.377 Y75.958 E2.90509
G1 X64.849 Y75.753 E2.92123
G1 X64.849 Y76.067 E2.93017
G1 X57.016 Y76.067 E3.15346
G1 X57.016 Y74.185 E3.20709
G1 X58.192 Y74.185 E3.24061
G1 X58.192 Y70.972 E3.33219
G10 ; retract
G92 E0
G1 X68.553 Y71.543 F6000.000
G11 ; unretract
G92 E0
G1 F1800
G1 X68.553 Y72.846 E0.03712
G1 X68.194 Y72.846 E0.04736
G1 X67.850 Y72.582 E0.05971
G1 X67.571 Y72.433 E0.06872
G1 X67.294 Y72.336 E0.07710
G1 X67.055 Y72.291 E0.08402
G1 X66.912 Y72.284 E0.08810
G1 X66.610 Y72.324 E0.09677
G1 X66.500 Y72.376 E0.10025
G1 X66.415 Y72.464 E0.10375
G1 X66.402 Y72.587 E0.10728
G1 X66.539 Y72.698 E0.11231
G1 X66.668 Y72.747 E0.11623
G1 X67.545 Y72.973 E0.14206
G1 X67.788 Y73.076 E0.14958
G1 X67.994 Y73.194 E0.15634
G1 X68.157 Y73.322 E0.16225
G1 X68.289 Y73.464 E0.16776
G1 X68.400 Y73.637 E0.17364
G1 X68.523 Y73.990 E0.18429
G1 X68.554 Y74.324 E0.19384
G1 X68.531 Y74.584 E0.20127
G1 X68.478 Y74.784 E0.20717
G1 X68.399 Y74.961 E0.21269
G1 X68.289 Y75.131 E0.21847
G1 X68.149 Y75.286 E0.22442
G1 X67.933 Y75.461 E0.23235
G1 X67.553 Y75.662 E0.24461
G1 X67.234 Y75.757 E0.25409
G1 X66.685 Y75.813 E0.26981
G1 X66.046 Y75.758 E0.28809
G1 X65.486 Y75.617 E0.30457
G1 X65.136 Y75.481 E0.31527
G1 X65.136 Y74.236 E0.35077
G1 X65.488 Y74.236 E0.36082
G1 X65.808 Y74.459 E0.37193
G1 X66.095 Y74.595 E0.38100
G1 X66.335 Y74.664 E0.38811
G1 X66.570 Y74.693 E0.39487
G1 X66.801 Y74.683 E0.40146
G1 X67.004 Y74.616 E0.40754
G1 X67.082 Y74.558 E0.41033
G1 X67.122 Y74.485 E0.41269
G1 X67.125 Y74.382 E0.41563
G1 X67.044 Y74.324 E0.41846
G1 X66.922 Y74.275 E0.42223
G1 X65.941 Y74.010 E0.45117
G1 X65.706 Y73.908 E0.45850
G1 X65.503 Y73.787 E0.46523
G1 X65.340 Y73.654 E0.47122
G1 X65.213 Y73.513 E0.47664
G1 X65.062 Y73.228 E0.48582
G1 X65.011 Y73.042 E0.49132
G1 X64.981 Y72.722 E0.50048
G1 X65.003 Y72.451 E0.50822
G1 X65.056 Y72.238 E0.51449
G1 X65.138 Y72.042 E0.52054
G1 X65.257 Y71.853 E0.52690
G1 X65.407 Y71.685 E0.53333
G1 X65.618 Y71.512 E0.54111
G1 X65.857 Y71.375 E0.54896
G1 X66.166 Y71.260 E0.55835
G1 X66.547 Y71.186 E0.56942
G1 X66.891 Y71.168 E0.57924
G1 X67.491 Y71.207 E0.59639
G1 X68.042 Y71.346 E0.61258
G1 X68.497 Y71.522 E0.62647
G1 X68.951 Y71.584 F6000.000
G1 X68.992 Y71.269 F6000.000
G1 F1800
G1 X73.920 Y71.269 E0.76696
G1 X74.900 Y72.578 E0.81356
G1 X75.046 Y72.530 E0.81796
G1 X75.046 Y71.269 E0.85388
G1 X76.469 Y71.269 E0.89443
G1 X76.469 Y75.709 E1.02099
G1 X74.650 Y75.709 E1.07284
G1 X74.092 Y75.673 E1.08880
G1 X73.844 Y75.617 E1.09601
G1 X73.637 Y75.534 E1.10238
G1 X73.345 Y75.338 E1.11241
G1 X73.205 Y75.189 E1.11823
G1 X73.095 Y75.028 E1.12379
G1 X72.983 Y74.736 E1.13269
G1 X72.949 Y74.404 E1.14222
G1 X72.964 Y74.158 E1.14924
G1 X73.008 Y73.929 E1.15590
G1 X73.080 Y73.733 E1.16184
G1 X73.178 Y73.558 E1.16758
G1 X73.329 Y73.371 E1.17441
G1 X73.510 Y73.208 E1.18135
G1 X73.632 Y73.133 E1.18544
G1 X72.246 Y71.358 E1.24961
G1 X72.102 Y71.408 E1.25397
G1 X72.102 Y75.709 E1.37659
G1 X68.992 Y75.709 E1.46524
G1 X68.992 Y74.542 E1.49851
G1 X70.679 Y74.542 E1.54661
G1 X70.679 Y74.226 E1.55562
G1 X69.145 Y74.226 E1.59935
G1 X69.145 Y73.059 E1.63261
G1 X70.679 Y73.059 E1.67634
G1 X70.679 Y72.437 E1.69409
G1 X68.992 Y72.437 E1.74220
G1 X68.992 Y71.329 E1.77375
G1 X68.865 Y70.890 F6000.000
G10 ; retract
G92 E0
G1 X64.492 Y71.269 F6000.000
G11 ; unretract
G92 E0
G1 F1800
G1 X64.492 Y75.709 E0.12656
G1 X61.382 Y75.709 E0.21521
G1 X61.382 Y74.542 E0.24848
G1 X63.070 Y74.542 E0.29658
G1 X63.070 Y74.226 E0.30559
G1 X61.535 Y74.226 E0.34932
G1 X61.535 Y73.059 E0.38258
G1 X63.070 Y73.059 E0.42631
G1 X63.070 Y72.437 E0.44407
G1 X61.382 Y72.437 E0.49217
G1 X61.382 Y71.269 E0.52543
G1 X64.432 Y71.269 E0.61238
G1 X64.890 Y71.222 F6000.000
G10 ; retract
G92 E0
G1 X59.972 Y71.269 F6000.000
G11 ; unretract
G92 E0
G1 F1800
G1 X59.972 Y74.542 E0.09329
G1 X61.148 Y74.542 E0.12682
G1 X61.148 Y75.709 E0.16008
G1 X57.373 Y75.709 E0.26769
G1 X57.373 Y74.542 E0.30096
G1 X58.549 Y74.542 E0.33448
G1 X58.549 Y71.269 E0.42777
G1 X59.912 Y71.269 E0.46662
G1 X60.342 Y71.119 F6000.000
G10 ; retract
G92 E0
G1 X64.453 Y67.011 F6000.000
G11 ; unretract
G92 E0
G1 F1800
G1 X63.792 Y66.350 E0.02665
G1 X63.256 Y65.584 E0.05329
G1 X62.861 Y64.737 E0.07994
G1 X62.619 Y63.834 E0.10658
G1 X62.538 Y62.902 E0.13323
G1 X62.619 Y61.971 E0.15987
G1 X62.861 Y61.068 E0.18652
G1 X63.256 Y60.221 E0.21316
G1 X63.792 Y59.455 E0.23981
G1 X64.453 Y58.794 E0.26646
G1 X65.219 Y58.258 E0.29310
G1 X66.066 Y57.863 E0.31975
G1 X66.969 Y57.621 E0.34639
G1 X67.900 Y57.540 E0.37304
G1 X68.832 Y57.621 E0.39968
G1 X69.735 Y57.863 E0.42633
G1 X70.582 Y58.258 E0.45297
G1 X71.348 Y58.794 E0.47962
G1 X72.009 Y59.455 E0.50627
G1 X72.545 Y60.221 E0.53291
G1 X72.940 Y61.068 E0.55956
G1 X73.182 Y61.971 E0.58620
G1 X73.263 Y62.902 E0.61285
G1 X73.182 Y63.834 E0.63949
G1 X72.940 Y64.737 E0.66614
G1 X72.545 Y65.584 E0.69278
G1 X72.009 Y66.350 E0.71943
G1 X71.348 Y67.011 E0.74607
G1 X70.582 Y67.547 E0.77272
G1 X69.735 Y67.942 E0.79937
G1 X68.832 Y68.184 E0.82601
G1 X67.900 Y68.265 E0.85266
G1 X66.969 Y68.184 E0.87930
G1 X66.066 Y67.942 E0.90595
G1 X65.219 Y67.547 E0.93259
G1 X64.502 Y67.045 E0.95753
G1 X64.684 Y66.736 F6000.000
G1 F1800
G1 X64.067 Y66.119 E0.98239
G1 X63.566 Y65.405 E1.00726
G1 X63.198 Y64.614 E1.03212
G1 X62.972 Y63.771 E1.05699
G1 X62.896 Y62.902 E1.08185
G1 X62.972 Y62.033 E1.10672
G1 X63.198 Y61.191 E1.13158
G1 X63.566 Y60.400 E1.15645
G1 X64.067 Y59.686 E1.18131
G1 X64.684 Y59.069 E1.20617
G1 X65.398 Y58.569 E1.23104
G1 X66.189 Y58.200 E1.25590
G1 X67.031 Y57.974 E1.28077
G1 X67.900 Y57.898 E1.30563
G1 X68.769 Y57.974 E1.33050
G1 X69.612 Y58.200 E1.35536
G1 X70.403 Y58.569 E1.38023
G1 X71.117 Y59.069 E1.40509
G1 X71.734 Y59.686 E1.42996
G1 X72.234 Y60.400 E1.45482
G1 X72.603 Y61.191 E1.47968
G1 X72.829 Y62.033 E1.50455
G1 X72.905 Y62.902 E1.52941
G1 X72.829 Y63.771 E1.55428
G1 X72.603 Y64.614 E1.57914
G1 X72.234 Y65.405 E1.60401
G1 X71.734 Y66.119 E1.62887
G1 X71.117 Y66.736 E1.65374
G1 X70.403 Y67.236 E1.67860
G1 X69.612 Y67.605 E1.70347
G1 X68.769 Y67.831 E1.72833
G1 X67.900 Y67.907 E1.75320
G1 X67.031 Y67.831 E1.77806
G1 X66.189 Y67.605 E1.80292
G1 X65.398 Y67.236 E1.82779
G1 X64.733 Y66.771 E1.85094
G1 X64.914 Y66.462 F6000.000
G1 F1800
G1 X64.341 Y65.889 E1.87403
G1 X63.877 Y65.225 E1.89711
G1 X63.535 Y64.492 E1.92019
G1 X63.325 Y63.709 E1.94328
G1 X63.254 Y62.902 E1.96636
G1 X63.325 Y62.096 E1.98945
G1 X63.535 Y61.313 E2.01253
G1 X63.877 Y60.579 E2.03561
G1 X64.341 Y59.916 E2.05870
G1 X64.914 Y59.343 E2.08178
G1 X65.577 Y58.879 E2.10486
G1 X66.311 Y58.537 E2.12795
G1 X67.094 Y58.327 E2.15103
G1 X67.900 Y58.256 E2.17411
G1 X68.707 Y58.327 E2.19720
G1 X69.489 Y58.537 E2.22028
G1 X70.223 Y58.879 E2.24337
G1 X70.887 Y59.343 E2.26645
G1 X71.459 Y59.916 E2.28953
G1 X71.924 Y60.579 E2.31262
G1 X72.266 Y61.313 E2.33570
G1 X72.476 Y62.096 E2.35878
G1 X72.546 Y62.902 E2.38187
G1 X72.476 Y63.709 E2.40495
G1 X72.266 Y64.492 E2.42803
G1 X71.924 Y65.225 E2.45112
G1 X71.459 Y65.889 E2.47420
G1 X70.887 Y66.462 E2.49729
G1 X70.223 Y66.926 E2.52037
G1 X69.489 Y67.268 E2.54345
G1 X68.707 Y67.478 E2.56654
G1 X67.900 Y67.548 E2.58962
G1 X67.094 Y67.478 E2.61270
G1 X66.311 Y67.268 E2.63579
G1 X65.577 Y66.926 E2.65887
G1 X64.963 Y66.496 E2.68024
G1 X64.538 Y66.598 F6000.000
G10 ; retract
G92 E0
G1 X67.322 Y52.961 F6000.000
G11 ; unretract
G92 E0
G1 F1800
G1 X67.294 Y53.066 E0.00308
G1 X67.024 Y53.644 E0.02126
G1 X66.648 Y54.175 E0.03981
G1 X66.212 Y54.611 E0.05740
G1 X65.691 Y54.976 E0.07550
G1 X65.116 Y55.244 E0.09361
G1 X64.500 Y55.409 E0.11179
G1 X63.851 Y55.462 E0.13034
G1 X63.236 Y55.408 E0.14793
G1 X62.623 Y55.244 E0.16604
G1 X62.047 Y54.976 E0.18415
G1 X61.526 Y54.611 E0.20226
G1 X61.077 Y54.162 E0.22037
G1 X60.713 Y53.641 E0.23847
G1 X60.444 Y53.066 E0.25658
G1 X60.280 Y52.452 E0.27469
G1 X60.224 Y51.817 E0.29287
G1 X60.285 Y51.169 E0.31142
G1 X60.444 Y50.573 E0.32901
G1 X60.713 Y49.997 E0.34712
G1 X61.077 Y49.476 E0.36523
G1 X61.526 Y49.027 E0.38334
G1 X62.047 Y48.663 E0.40144
G1 X62.625 Y48.393 E0.41963
G1 X63.254 Y48.228 E0.43817
G1 X63.869 Y48.175 E0.45576
G1 X64.502 Y48.230 E0.47387
G1 X65.116 Y48.394 E0.49198
G1 X65.691 Y48.663 E0.51009
G1 X66.212 Y49.027 E0.52820
G1 X66.661 Y49.476 E0.54631
G1 X67.025 Y49.997 E0.56441
G1 X67.294 Y50.573 E0.58252
G1 X67.322 Y50.677 E0.58560
G1 X67.486 Y50.677 E0.59029
G1 X67.514 Y50.573 E0.59336
G1 X67.783 Y49.997 E0.61147
G1 X68.147 Y49.476 E0.62958
G1 X68.596 Y49.027 E0.64769
G1 X69.117 Y48.663 E0.66580
G1 X69.695 Y48.393 E0.68398
G1 X70.324 Y48.228 E0.70253
G1 X70.939 Y48.174 E0.72012
G1 X71.572 Y48.230 E0.73822
G1 X72.186 Y48.394 E0.75633
G1 X72.761 Y48.663 E0.77444
G1 X73.282 Y49.027 E0.79255
G1 X73.731 Y49.476 E0.81066
G1 X74.095 Y49.997 E0.82877
G1 X74.364 Y50.573 E0.84688
G1 X74.528 Y51.186 E0.86498
G1 X74.584 Y51.819 E0.88309
G1 X74.528 Y52.452 E0.90120
G1 X74.364 Y53.066 E0.91931
G1 X74.095 Y53.641 E0.93742
G1 X73.731 Y54.162 E0.95553
G1 X73.282 Y54.611 E0.97363
G1 X72.776 Y54.965 E0.99122
G1 X72.188 Y55.243 E1.00977
G1 X71.572 Y55.408 E1.02795
G1 X70.939 Y55.464 E1.04606
G1 X70.306 Y55.408 E1.06417
G1 X69.690 Y55.243 E1.08235
G1 X69.102 Y54.965 E1.10090
G1 X68.596 Y54.611 E1.11849
G1 X68.147 Y54.162 E1.13660
G1 X67.783 Y53.641 E1.15471
G1 X67.514 Y53.066 E1.17281
G1 X67.486 Y52.961 E1.17589
G1 X67.382 Y52.961 E1.17887
G1 X67.851 Y52.943 F6000.000
G1 F1800
G1 X67.703 Y52.390 E1.19519
G1 X67.653 Y51.819 E1.21152
G1 X67.703 Y51.249 E1.22785
G1 X67.851 Y50.695 E1.24418
G1 X68.093 Y50.176 E1.26050
G1 X68.422 Y49.707 E1.27683
G1 X68.827 Y49.302 E1.29316
G1 X69.296 Y48.973 E1.30949
G1 X69.817 Y48.730 E1.32586
G1 X70.386 Y48.581 E1.34263
G1 X70.939 Y48.533 E1.35846
G1 X71.510 Y48.583 E1.37479
G1 X72.063 Y48.731 E1.39112
G1 X72.582 Y48.973 E1.40745
G1 X73.051 Y49.302 E1.42377
G1 X73.456 Y49.707 E1.44010
G1 X73.785 Y50.176 E1.45643
G1 X74.027 Y50.695 E1.47276
G1 X74.175 Y51.249 E1.48908
G1 X74.225 Y51.819 E1.50541
G1 X74.175 Y52.390 E1.52174
G1 X74.027 Y52.943 E1.53807
