; generated by Slic3r 1.35.5-prusa3d-win64 on 2017-07-01 at 16:33:58

; 

; external perimeters extrusion width = 0.41mm
; perimeters extrusion width = 0.41mm
; infill extrusion width = 0.41mm
; solid infill extrusion width = 0.41mm
; top infill extrusion width = 0.41mm
; support material extrusion width = 0.41mm
; first layer extrusion width = 0.60mm

M107
M190 S55 ; set bed temperature and wait for it to be reached
M104 S220 ; set temperature
G28 ; home all axes
G1 Z5 F5000 ; lift nozzle

; Filament gcode

M109 S220 ; set temperature and wait for it to be reached
G21 ; set units to millimeters
G90 ; use absolute coordinates
M82 ; use absolute distances for extrusion
G92 E0
G1 Z0.300 F6000.000
G10 ; retract
G92 E0
G1 X83.642 Y68.204 F6000.000
G11 ; unretract
G92 E0
M204 S2000
G1 F1800
G1 X85.385 Y67.286 E0.10530
G1 X87.264 Y66.692 E0.21060
G1 X89.226 Y66.440 E0.31634
G1 X160.358 Y66.431 E4.11794
G1 X162.377 Y66.619 E4.22630
G1 X164.328 Y67.171 E4.33467
G1 X166.153 Y68.074 E4.44347
G1 X167.775 Y69.290 E4.55183
G1 X169.148 Y70.782 E4.66019
G1 X170.226 Y72.499 E4.76855
G1 X170.975 Y74.392 E4.87735
G1 X171.364 Y76.382 E4.98571
G1 X171.421 Y77.498 E5.04544
G1 X171.405 Y133.089 E8.01645
G1 X171.298 Y134.143 E8.07310
G1 X171.091 Y135.183 E8.12976
G1 X170.784 Y136.198 E8.18641
G1 X170.383 Y137.179 E8.24306
G1 X169.889 Y138.117 E8.29971
G1 X169.308 Y139.003 E8.35636
G1 X168.645 Y139.830 E8.41301
G1 X167.905 Y140.590 E8.46967
G1 X166.351 Y141.801 E8.57497
G1 X164.607 Y142.717 E8.68027
G1 X162.728 Y143.310 E8.78556
G1 X160.774 Y143.560 E8.89086
G1 X89.584 Y143.568 E12.69555
G1 X88.460 Y143.504 E12.75571
G1 X87.349 Y143.327 E12.81587
G1 X86.261 Y143.037 E12.87603
G1 X85.208 Y142.638 E12.93619
G1 X84.201 Y142.135 E12.99636
G1 X83.251 Y141.532 E13.05652
G1 X82.367 Y140.835 E13.11668
G1 X81.557 Y140.053 E13.17684
G1 X80.360 Y138.519 E13.28083
G1 X79.449 Y136.800 E13.38482
G1 X78.853 Y134.948 E13.48880
G1 X78.591 Y133.020 E13.59279
G1 X78.579 Y77.421 E16.56425
G1 X78.645 Y76.297 E16.62441
G1 X78.822 Y75.193 E16.68413
G1 X79.110 Y74.114 E16.74386
G1 X79.509 Y73.061 E16.80402
G1 X80.012 Y72.054 E16.86418
G1 X80.615 Y71.104 E16.92434
G1 X81.312 Y70.219 E16.98450
G1 X82.089 Y69.416 E17.04423
G1 X83.595 Y68.241 E17.14632
G1 X83.923 Y68.665 F6000.000
G1 F1800
G1 X85.627 Y67.765 E17.24929
G1 X87.408 Y67.208 E17.34902
G1 X89.267 Y66.974 E17.44917
G1 X160.358 Y66.967 E21.24858
G1 X162.280 Y67.145 E21.35172
G1 X164.144 Y67.674 E21.45529
G1 X165.880 Y68.535 E21.55886
G1 X167.429 Y69.700 E21.66242
G1 X168.738 Y71.128 E21.76599
G1 X169.764 Y72.772 E21.86956
G1 X170.471 Y74.577 E21.97313
G1 X170.836 Y76.480 E22.07669
G1 X170.872 Y133.042 E25.09964
G1 X170.573 Y135.046 E25.20790
G1 X169.893 Y136.962 E25.31659
G1 X168.862 Y138.706 E25.42485
G1 X167.510 Y140.226 E25.53354
G1 X166.035 Y141.368 E25.63326
G1 X164.373 Y142.235 E25.73341
G1 X162.592 Y142.792 E25.83314
G1 X160.733 Y143.026 E25.93329
G1 X89.578 Y143.033 E29.73613
G1 X88.506 Y142.971 E29.79353
G1 X87.445 Y142.800 E29.85094
G1 X86.400 Y142.519 E29.90877
G1 X85.397 Y142.136 E29.96617
G1 X84.437 Y141.653 E30.02358
G1 X83.532 Y141.075 E30.08098
G1 X82.691 Y140.407 E30.13838
G1 X81.921 Y139.658 E30.19579
G1 X80.793 Y138.202 E30.29423
G1 X79.931 Y136.565 E30.39310
G1 X79.371 Y134.810 E30.49155
G1 X79.125 Y132.976 E30.59042
G1 X79.115 Y77.415 E33.55989
G1 X79.178 Y76.350 E33.61686
G1 X79.349 Y75.290 E33.67426
G1 X79.628 Y74.253 E33.73167
G1 X80.011 Y73.249 E33.78907
G1 X80.494 Y72.290 E33.84648
G1 X81.073 Y71.385 E33.90388
G1 X81.740 Y70.543 E33.96128
G1 X82.490 Y69.774 E34.01869
G1 X83.876 Y68.702 E34.11234
G10 ; retract
G92 E0
G1 X108.295 Y114.060 F6000.000
G11 ; unretract
G92 E0
G1 F1800
G1 X107.660 Y114.967 E0.05917
G1 X106.881 Y115.746 E0.11811
G1 X105.977 Y116.379 E0.17705
G1 X104.978 Y116.845 E0.23599
G1 X103.912 Y117.130 E0.29494
G1 X102.814 Y117.227 E0.35387
G1 X101.715 Y117.130 E0.41281
G1 X100.650 Y116.845 E0.47175
G1 X99.651 Y116.379 E0.53068
G1 X98.747 Y115.746 E0.58962
G1 X97.967 Y114.967 E0.64856
G1 X97.335 Y114.063 E0.70750
G1 X96.869 Y113.064 E0.76644
G1 X96.582 Y111.993 E0.82568
G1 X96.491 Y110.852 E0.88687
G1 X96.583 Y109.801 E0.94323
G1 X96.869 Y108.736 E1.00217
G1 X97.335 Y107.737 E1.06111
G1 X97.967 Y106.833 E1.12005
G1 X98.747 Y106.053 E1.17898
G1 X99.651 Y105.421 E1.23792
G1 X100.655 Y104.952 E1.29717
G1 X101.764 Y104.665 E1.35836
G1 X102.814 Y104.573 E1.41471
G1 X103.913 Y104.669 E1.47365
G1 X104.978 Y104.955 E1.53259
G1 X105.977 Y105.421 E1.59153
G1 X106.881 Y106.053 E1.65047
G1 X107.660 Y106.833 E1.70941
G1 X108.293 Y107.737 E1.76835
G1 X108.759 Y108.736 E1.82728
G1 X109.045 Y109.801 E1.88622
G1 X109.141 Y110.900 E1.94516
G1 X109.045 Y111.998 E2.00410
G1 X108.769 Y113.028 E2.06109
G1 X108.321 Y114.005 E2.11852
G1 X107.829 Y113.792 F6000.000
G1 F1800
G1 X107.249 Y114.621 E2.17259
G1 X106.535 Y115.335 E2.22652
G1 X105.708 Y115.913 E2.28045
G1 X104.794 Y116.340 E2.33438
G1 X103.819 Y116.601 E2.38832
G1 X102.814 Y116.689 E2.44224
G1 X101.809 Y116.601 E2.49617
G1 X100.834 Y116.340 E2.55010
G1 X99.919 Y115.913 E2.60403
G1 X99.093 Y115.335 E2.65796
G1 X98.379 Y114.621 E2.71189
G1 X97.800 Y113.794 E2.76582
G1 X97.374 Y112.880 E2.81976
G1 X97.112 Y111.902 E2.87387
G1 X97.029 Y110.854 E2.93005
G1 X97.113 Y109.895 E2.98151
G1 X97.374 Y108.920 E3.03544
G1 X97.800 Y108.005 E3.08937
G1 X98.379 Y107.179 E3.14330
G1 X99.093 Y106.465 E3.19724
G1 X99.919 Y105.886 E3.25117
G1 X100.837 Y105.459 E3.30528
G1 X101.855 Y105.195 E3.36146
G1 X102.814 Y105.111 E3.41292
G1 X103.819 Y105.199 E3.46685
G1 X104.794 Y105.460 E3.52078
G1 X105.708 Y105.886 E3.57472
G1 X106.535 Y106.465 E3.62865
G1 X107.249 Y107.179 E3.68258
G1 X107.827 Y108.005 E3.73651
G1 X108.254 Y108.920 E3.79044
G1 X108.515 Y109.895 E3.84437
G1 X108.603 Y110.900 E3.89830
G1 X108.515 Y111.905 E3.95223
G1 X108.263 Y112.846 E4.00430
G1 X107.854 Y113.738 E4.05672
G1 X107.362 Y113.525 F6000.000
G1 F1800
G1 X106.837 Y114.275 E4.10569
G1 X106.189 Y114.923 E4.15461
G1 X105.440 Y115.448 E4.20353
G1 X104.610 Y115.835 E4.25245
G1 X103.726 Y116.071 E4.30139
G1 X102.814 Y116.151 E4.35030
G1 X101.902 Y116.071 E4.39922
G1 X101.018 Y115.835 E4.44814
G1 X100.188 Y115.448 E4.49706
G1 X99.438 Y114.923 E4.54598
G1 X98.791 Y114.275 E4.59490
G1 X98.266 Y113.526 E4.64383
G1 X97.879 Y112.696 E4.69275
G1 X97.642 Y111.811 E4.74174
G1 X97.566 Y110.856 E4.79291
G1 X97.642 Y109.988 E4.83948
G1 X97.879 Y109.104 E4.88840
G1 X98.266 Y108.274 E4.93732
G1 X98.791 Y107.524 E4.98624
G1 X99.438 Y106.877 E5.03517
G1 X100.188 Y106.352 E5.08409
G1 X101.019 Y105.965 E5.13308
G1 X101.946 Y105.724 E5.18425
G1 X102.814 Y105.649 E5.23082
G1 X103.726 Y105.728 E5.27974
G1 X104.610 Y105.965 E5.32866
G1 X105.440 Y106.352 E5.37758
G1 X106.189 Y106.877 E5.42651
G1 X106.837 Y107.524 E5.47543
G1 X107.362 Y108.274 E5.52435
G1 X107.749 Y109.104 E5.57327
G1 X107.986 Y109.988 E5.62219
G1 X108.065 Y110.900 E5.67111
G1 X107.986 Y111.812 E5.72004
G1 X107.757 Y112.664 E5.76718
G1 X107.387 Y113.470 E5.81460
G1 X107.562 Y113.871 F6000.000
G10 ; retract
G92 E0
G1 X112.585 Y111.265 F6000.000
G11 ; unretract
G92 E0
G1 F1800
G1 X112.585 Y97.917 E0.71335
G1 X137.548 Y97.917 E2.04745
G1 X137.548 Y111.265 E2.76080
G1 X112.645 Y111.265 E4.09169
G1 X113.121 Y110.729 F6000.000
G1 F1800
G1 X113.121 Y98.453 E4.74779
G1 X137.012 Y98.453 E6.02464
G1 X137.012 Y110.729 E6.68073
G1 X113.181 Y110.729 E7.95438
G1 X113.657 Y110.193 F6000.000
G1 F1800
G1 X113.657 Y98.988 E8.55322
G1 X136.477 Y98.988 E9.77282
G1 X136.477 Y110.193 E10.37167
G1 X113.717 Y110.193 E11.58806
G1 X113.261 Y110.254 F6000.000
G10 ; retract
G92 E0
G1 X147.259 Y94.294 F6000.000
G11 ; unretract
G92 E0
G1 F1800
G1 X147.598 Y93.811 E0.03156
G1 X148.110 Y93.299 E0.07026
G1 X148.703 Y92.883 E0.10896
G1 X149.365 Y92.575 E0.14796
G1 X150.088 Y92.387 E0.18792
G1 X150.780 Y92.327 E0.22503
G1 X151.502 Y92.390 E0.26373
G1 X152.201 Y92.577 E0.30243
G1 X152.857 Y92.883 E0.34113
G1 X153.450 Y93.299 E0.37983
G1 X153.962 Y93.811 E0.41853
G1 X154.378 Y94.404 E0.45722
G1 X154.684 Y95.060 E0.49592
G1 X154.871 Y95.759 E0.53462
G1 X154.934 Y96.481 E0.57332
G1 X154.871 Y97.202 E0.61202
G1 X154.684 Y97.901 E0.65072
G1 X154.378 Y98.558 E0.68941
G1 X153.962 Y99.151 E0.72811
G1 X153.450 Y99.663 E0.76681
G1 X152.857 Y100.078 E0.80551
G1 X152.201 Y100.384 E0.84421
G1 X151.502 Y100.572 E0.88291
G1 X150.780 Y100.635 E0.92160
G1 X150.059 Y100.572 E0.96030
G1 X149.359 Y100.384 E0.99900
G1 X148.703 Y100.078 E1.03770
G1 X148.110 Y99.663 E1.07640
G1 X147.598 Y99.151 E1.11510
G1 X147.231 Y98.627 E1.14929
G1 X146.892 Y99.110 E1.18086
G1 X146.380 Y99.622 E1.21955
G1 X145.787 Y100.038 E1.25825
G1 X145.131 Y100.344 E1.29695
G1 X144.432 Y100.531 E1.33565
G1 X143.710 Y100.594 E1.37435
G1 X142.989 Y100.531 E1.41305
G1 X142.289 Y100.344 E1.45174
G1 X141.633 Y100.038 E1.49044
G1 X141.035 Y99.619 E1.52944
G1 X140.511 Y99.086 E1.56940
G1 X140.113 Y98.517 E1.60652
G1 X139.807 Y97.861 E1.64522
G1 X139.618 Y97.156 E1.68422
G1 X139.559 Y96.411 E1.72418
G1 X139.619 Y95.719 E1.76129
G1 X139.807 Y95.020 E1.79999
G1 X140.113 Y94.363 E1.83869
G1 X140.528 Y93.770 E1.87739
G1 X141.040 Y93.258 E1.91609
G1 X141.633 Y92.843 E1.95479
G1 X142.295 Y92.534 E1.99379
G1 X143.018 Y92.347 E2.03375
G1 X143.710 Y92.286 E2.07086
G1 X144.432 Y92.349 E2.10956
G1 X145.131 Y92.537 E2.14826
G1 X145.787 Y92.843 E2.18696
G1 X146.380 Y93.258 E2.22566
G1 X146.892 Y93.770 E2.26435
G1 X147.225 Y94.245 E2.29535
G1 X147.255 Y95.517 F6000.000
G1 F1800
G1 X147.648 Y94.673 E2.34514
G1 X148.010 Y94.156 E2.37883
G1 X148.456 Y93.710 E2.41252
G1 X148.972 Y93.349 E2.44621
G1 X149.547 Y93.081 E2.48008
G1 X150.180 Y92.917 E2.51504
G1 X150.780 Y92.864 E2.54726
G1 X151.408 Y92.919 E2.58095
G1 X152.017 Y93.082 E2.61464
G1 X152.588 Y93.349 E2.64833
G1 X153.105 Y93.710 E2.68202
G1 X153.550 Y94.156 E2.71571
G1 X153.912 Y94.673 E2.74940
G1 X154.178 Y95.244 E2.78309
G1 X154.342 Y95.853 E2.81678
G1 X154.397 Y96.481 E2.85046
G1 X154.342 Y97.109 E2.88415
G1 X154.178 Y97.718 E2.91784
G1 X153.912 Y98.289 E2.95153
G1 X153.550 Y98.805 E2.98522
G1 X153.105 Y99.251 E3.01891
G1 X152.588 Y99.613 E3.05260
G1 X152.017 Y99.879 E3.08629
G1 X151.408 Y100.042 E3.11998
G1 X150.780 Y100.097 E3.15367
G1 X150.152 Y100.042 E3.18736
G1 X149.543 Y99.879 E3.22105
G1 X148.972 Y99.613 E3.25474
G1 X148.456 Y99.251 E3.28843
G1 X148.010 Y98.805 E3.32212
G1 X147.648 Y98.289 E3.35581
G1 X147.238 Y97.408 E3.40777
G1 X146.826 Y98.271 E3.45887
G1 X146.480 Y98.765 E3.49110
G1 X146.035 Y99.211 E3.52479
G1 X145.518 Y99.572 E3.55848
G1 X144.947 Y99.839 E3.59217
G1 X144.338 Y100.002 E3.62585
G1 X143.710 Y100.057 E3.65954
G1 X143.082 Y100.002 E3.69323
G1 X142.473 Y99.839 E3.72692
G1 X141.902 Y99.572 E3.76061
G1 X141.383 Y99.209 E3.79449
G1 X140.924 Y98.742 E3.82944
G1 X140.578 Y98.248 E3.86166
G1 X140.312 Y97.677 E3.89535
G1 X140.148 Y97.065 E3.92923
G1 X140.096 Y96.413 E3.96418
G1 X140.149 Y95.812 E3.99640
G1 X140.312 Y95.203 E4.03009
G1 X140.578 Y94.632 E4.06378
G1 X140.940 Y94.116 E4.09747
G1 X141.386 Y93.670 E4.13116
G1 X141.902 Y93.308 E4.16485
G1 X142.477 Y93.041 E4.19872
G1 X143.110 Y92.877 E4.23367
G1 X143.710 Y92.824 E4.26590
G1 X144.338 Y92.879 E4.29959
G1 X144.947 Y93.042 E4.33328
G1 X145.518 Y93.308 E4.36697
G1 X146.035 Y93.670 E4.40066
G1 X146.480 Y94.116 E4.43435
G1 X146.842 Y94.632 E4.46804
G1 X147.229 Y95.463 E4.51701
G1 X147.887 Y95.428 F6000.000
G1 F1800
G1 X148.114 Y94.941 E4.54569
G1 X148.422 Y94.502 E4.57437
G1 X148.801 Y94.122 E4.60305
G1 X149.241 Y93.815 E4.63173
G1 X149.728 Y93.587 E4.66048
G1 X150.271 Y93.447 E4.69042
G1 X150.780 Y93.402 E4.71775
G1 X151.315 Y93.449 E4.74643
G1 X151.833 Y93.588 E4.77511
G1 X152.320 Y93.815 E4.80379
G1 X152.759 Y94.122 E4.83248
G1 X153.139 Y94.502 E4.86116
G1 X153.446 Y94.941 E4.88984
G1 X153.673 Y95.428 E4.91852
G1 X153.812 Y95.946 E4.94720
G1 X153.859 Y96.481 E4.97588
G1 X153.812 Y97.015 E5.00456
G1 X153.673 Y97.534 E5.03324
G1 X153.446 Y98.020 E5.06192
G1 X153.139 Y98.460 E5.09060
G1 X152.759 Y98.839 E5.11928
G1 X152.320 Y99.147 E5.14796
G1 X151.833 Y99.374 E5.17664
G1 X151.315 Y99.513 E5.20532
G1 X150.780 Y99.559 E5.23400
G1 X150.246 Y99.513 E5.26268
G1 X149.727 Y99.374 E5.29136
G1 X149.241 Y99.147 E5.32004
G1 X148.801 Y98.839 E5.34873
G1 X148.422 Y98.460 E5.37741
G1 X148.114 Y98.020 E5.40609
G1 X147.887 Y97.534 E5.43477
G1 X147.748 Y97.015 E5.46345
G1 X147.701 Y96.479 E5.49219
G1 X147.755 Y95.922 E5.52214
G1 X147.872 Y95.486 E5.54626
G1 X147.630 Y95.121 F6000.000
G1 X146.742 Y95.906 F6000.000
G1 F1800
G1 X146.789 Y96.440 E5.57494
G1 X146.742 Y96.975 E5.60363
G1 X146.603 Y97.494 E5.63237
G1 X146.362 Y98.000 E5.66232
G1 X146.069 Y98.419 E5.68965
G1 X145.689 Y98.799 E5.71833
G1 X145.250 Y99.106 E5.74701
G1 X144.763 Y99.333 E5.77569
G1 X144.245 Y99.472 E5.80437
G1 X143.710 Y99.519 E5.83305
G1 X143.176 Y99.472 E5.86173
G1 X142.657 Y99.333 E5.89041
G1 X142.171 Y99.106 E5.91909
G1 X141.730 Y98.798 E5.94784
G1 X141.337 Y98.399 E5.97778
G1 X141.044 Y97.980 E6.00512
G1 X140.817 Y97.493 E6.03380
G1 X140.678 Y96.974 E6.06254
G1 X140.634 Y96.415 E6.09249
G1 X140.678 Y95.906 E6.11982
G1 X140.817 Y95.387 E6.14850
G1 X141.044 Y94.901 E6.17718
G1 X141.352 Y94.461 E6.20586
G1 X141.731 Y94.082 E6.23454
G1 X142.171 Y93.774 E6.26322
G1 X142.658 Y93.547 E6.29197
G1 X143.201 Y93.406 E6.32191
G1 X143.710 Y93.362 E6.34925
G1 X144.245 Y93.408 E6.37793
G1 X144.763 Y93.547 E6.40661
G1 X145.250 Y93.774 E6.43529
G1 X145.689 Y94.082 E6.46397
G1 X146.069 Y94.461 E6.49265
G1 X146.376 Y94.901 E6.52133
G1 X146.603 Y95.387 E6.55001
G1 X146.727 Y95.848 E6.57548
G1 X147.118 Y96.042 F6000.000
G10 ; retract
G92 E0
G1 X147.143 Y104.443 F6000.000
G11 ; unretract
G92 E0
G1 F1800
G1 X148.280 Y104.534 E0.06095
G1 X149.350 Y104.820 E0.12016
G1 X150.349 Y105.287 E0.17910
G1 X151.253 Y105.919 E0.23804
G1 X152.037 Y106.703 E0.29728
G1 X152.686 Y107.646 E0.35847
G1 X153.131 Y108.602 E0.41482
G1 X153.417 Y109.667 E0.47376
G1 X153.513 Y110.766 E0.53270
G1 X153.417 Y111.864 E0.59164
G1 X153.131 Y112.929 E0.65058
G1 X152.663 Y113.934 E0.70982
G1 X151.998 Y114.867 E0.77101
G1 X151.253 Y115.612 E0.82737
G1 X150.349 Y116.245 E0.88630
G1 X149.350 Y116.711 E0.94524
G1 X148.285 Y116.996 E1.00418
G1 X147.186 Y117.092 E1.06312
G1 X146.082 Y116.996 E1.12236
G1 X144.978 Y116.690 E1.18355
G1 X144.023 Y116.245 E1.23991
G1 X143.119 Y115.612 E1.29885
G1 X142.340 Y114.832 E1.35779
G1 X141.707 Y113.929 E1.41673
G1 X141.241 Y112.929 E1.47566
G1 X140.955 Y111.864 E1.53460
G1 X140.859 Y110.766 E1.59354
G1 X140.955 Y109.667 E1.65248
G1 X141.241 Y108.602 E1.71142
G1 X141.707 Y107.602 E1.77036
G1 X142.340 Y106.699 E1.82930
G1 X143.119 Y105.919 E1.88824
G1 X144.023 Y105.287 E1.94718
G1 X145.022 Y104.820 E2.00612
G1 X146.088 Y104.535 E2.06507
G1 X147.083 Y104.448 E2.11848
G1 X147.145 Y104.980 F6000.000
G1 F1800
G1 X148.188 Y105.064 E2.17442
G1 X149.166 Y105.326 E2.22852
G1 X150.081 Y105.752 E2.28245
G1 X150.907 Y106.331 E2.33638
G1 X151.623 Y107.047 E2.39049
G1 X152.219 Y107.913 E2.44667
G1 X152.626 Y108.786 E2.49814
G1 X152.887 Y109.760 E2.55207
G1 X152.975 Y110.766 E2.60600
G1 X152.887 Y111.771 E2.65993
G1 X152.626 Y112.746 E2.71386
G1 X152.198 Y113.663 E2.76797
G1 X151.588 Y114.519 E2.82415
G1 X150.907 Y115.200 E2.87562
G1 X150.081 Y115.779 E2.92955
G1 X149.166 Y116.206 E2.98348
G1 X148.191 Y116.467 E3.03741
G1 X147.186 Y116.555 E3.09134
G1 X146.177 Y116.466 E3.14545
G1 X145.164 Y116.186 E3.20163
G1 X144.292 Y115.779 E3.25310
G1 X143.465 Y115.200 E3.30703
G1 X142.751 Y114.487 E3.36096
G1 X142.173 Y113.660 E3.41489
G1 X141.746 Y112.746 E3.46882
G1 X141.485 Y111.771 E3.52275
G1 X141.397 Y110.766 E3.57668
G1 X141.485 Y109.760 E3.63061
G1 X141.746 Y108.786 E3.68454
G1 X142.173 Y107.871 E3.73847
G1 X142.751 Y107.045 E3.79240
G1 X143.465 Y106.331 E3.84633
G1 X144.292 Y105.752 E3.90026
G1 X145.206 Y105.326 E3.95419
G1 X146.181 Y105.065 E4.00814
G1 X147.085 Y104.985 E4.05664
G1 X147.147 Y105.518 F6000.000
G1 F1800
G1 X148.097 Y105.594 E4.10757
G1 X148.982 Y105.831 E4.15655
G1 X149.812 Y106.218 E4.20548
G1 X150.562 Y106.743 E4.25440
G1 X151.210 Y107.391 E4.30338
