; generated by Slic3r 1.35.5-prusa3d-win64 on 2017-07-03 at 01:35:26

; 

; external perimeters extrusion width = 0.40mm
; perimeters extrusion width = 0.40mm
; infill extrusion width = 0.40mm
; solid infill extrusion width = 0.40mm
; top infill extrusion width = 0.40mm
; support material extrusion width = 0.40mm
; first layer extrusion width = 0.60mm

M107
M190 S55 ; set bed temperature and wait for it to be reached
M104 S220 ; set temperature
G28 ; home all axes
G1 Z5 F5000 ; lift nozzle

; Filament gcode

M109 S220 ; set temperature and wait for it to be reached
G21 ; set units to millimeters
G90 ; use absolute coordinates
M82 ; use absolute distances for extrusion
G92 E0
G1 Z0.200 F6000.000
G10 ; retract
G92 E0
G1 X10.405 Y11.201 F6000.000
G11 ; unretract
G92 E0
M204 S2000
G1 F1800
G1 X11.524 Y10.260 E0.04169
G1 X12.755 Y9.485 E0.08315
G1 X14.087 Y8.880 E0.12483
G1 X15.488 Y8.462 E0.16652
G1 X16.934 Y8.240 E0.20821
G1 X85.518 Y8.201 E2.16311
G1 X230.813 Y8.926 E6.30459
G1 X231.860 Y9.006 E6.33454
G1 X232.895 Y9.188 E6.36450
G1 X233.908 Y9.470 E6.39445
G1 X234.887 Y9.851 E6.42440
G1 X235.825 Y10.325 E6.45436
G1 X236.712 Y10.889 E6.48431
G1 X237.539 Y11.537 E6.51426
G1 X238.298 Y12.263 E6.54421
G1 X239.464 Y13.730 E6.59762
G1 X240.360 Y15.385 E6.65126
G1 X240.952 Y17.171 E6.70490
G1 X241.222 Y19.026 E6.75830
G1 X245.696 Y142.112 E10.26904
G1 X245.699 Y165.886 E10.94668
G1 X245.639 Y166.992 E10.97824
G1 X245.275 Y168.846 E11.03211
G1 X244.591 Y170.608 E11.08598
G1 X243.607 Y172.222 E11.13984
G1 X242.356 Y173.638 E11.19371
G1 X241.029 Y174.708 E11.24229
G1 X239.557 Y175.551 E11.29065
G1 X237.963 Y176.154 E11.33923
G1 X236.301 Y176.495 E11.38759
G1 X86.245 Y192.975 E15.69045
G1 X17.371 Y192.990 E17.65362
G1 X15.340 Y192.705 E17.71207
G1 X13.393 Y192.034 E17.77076
G1 X11.617 Y191.008 E17.82922
G1 X10.064 Y189.657 E17.88790
G1 X8.832 Y188.088 E17.94475
G1 X7.913 Y186.318 E18.00161
G1 X7.336 Y184.401 E18.05869
G1 X7.126 Y182.417 E18.11554
G1 X7.126 Y18.867 E22.77732
G1 X7.181 Y17.826 E22.80704
G1 X7.338 Y16.795 E22.83676
G1 X7.593 Y15.784 E22.86648
G1 X7.946 Y14.802 E22.89621
G1 X8.599 Y13.493 E22.93789
G1 X9.423 Y12.285 E22.97958
G1 X10.364 Y11.245 E23.01956
G10 ; retract
G92 E0
G1 X7.687 Y16.870 F6000.000
G11 ; unretract
G92 E0
G1 F1800
G1 X8.275 Y14.941 E0.05747
G1 X8.906 Y13.675 E0.09778
G1 X9.708 Y12.501 E0.13831
G1 X10.657 Y11.453 E0.17862
G1 X11.741 Y10.544 E0.21893
G1 X12.938 Y9.792 E0.25924
G1 X14.234 Y9.206 E0.29977
G1 X15.590 Y8.805 E0.34008
G1 X16.988 Y8.593 E0.38039
G1 X85.518 Y8.558 E2.33372
G1 X230.791 Y9.283 E6.47459
G1 X232.800 Y9.532 E6.53229
G1 X234.729 Y10.171 E6.59021
G1 X236.496 Y11.174 E6.64814
G1 X238.034 Y12.503 E6.70606
G1 X239.166 Y13.926 E6.75789
G1 X240.031 Y15.525 E6.80972
G1 X240.604 Y17.251 E6.86155
G1 X240.865 Y19.051 E6.91338
G1 X245.339 Y142.115 E10.42349
G1 X245.342 Y165.886 E11.10103
G1 X245.287 Y166.925 E11.13071
G1 X244.940 Y168.718 E11.18276
G1 X244.280 Y170.430 E11.23504
G1 X243.333 Y171.991 E11.28710
G1 X242.121 Y173.368 E11.33938
G1 X240.837 Y174.407 E11.38647
G1 X239.411 Y175.225 E11.43333
G1 X237.874 Y175.808 E11.48020
G1 X236.255 Y176.141 E11.52728
G1 X86.229 Y192.618 E15.82929
G1 X17.403 Y192.634 E17.79110
G1 X15.437 Y192.361 E17.84767
G1 X13.559 Y191.717 E17.90424
G1 X11.839 Y190.728 E17.96081
G1 X10.334 Y189.423 E18.01761
G1 X9.140 Y187.907 E18.07260
G1 X8.246 Y186.188 E18.12781
G1 X7.687 Y184.334 E18.18303
G1 X7.483 Y182.407 E18.23824
G1 X7.483 Y18.868 E22.89972
G1 X7.681 Y16.929 E22.95525
G10 ; retract
G92 E0
G1 X21.028 Y27.836 F6000.000
G11 ; unretract
G92 E0
G1 F1800
G1 X21.028 Y25.965 E0.05333
G1 X21.193 Y25.647 E0.06354
G1 X21.364 Y25.423 E0.07158
G1 X21.364 Y28.048 E0.14640
G1 X21.495 Y28.197 E0.15206
G1 X21.699 Y28.362 E0.15955
G1 X21.699 Y25.111 E0.25221
G1 X22.035 Y24.911 E0.26335
G1 X22.035 Y28.564 E0.36747
G1 X22.371 Y28.687 E0.37766
G1 X22.371 Y24.789 E0.48878
G1 X22.706 Y24.729 E0.49849
G1 X22.706 Y28.747 E0.61301
G1 X23.042 Y28.749 E0.62258
G1 X23.042 Y24.727 E0.73722
G1 X23.377 Y24.781 E0.74691
G1 X23.377 Y28.694 E0.85846
G1 X23.713 Y28.579 E0.86858
G1 X23.713 Y24.896 E0.97354
G1 X24.049 Y25.089 E0.98458
G1 X24.049 Y28.390 E1.07866
G1 X24.384 Y28.093 E1.09143
G1 X24.384 Y25.393 E1.16841
G1 X24.516 Y25.544 E1.17412
G1 X24.720 Y25.900 E1.18582
G1 X24.720 Y27.902 E1.24288
G1 X24.981 Y28.463 F6000.000
G1 F1800
G1 X24.981 Y27.815 E1.26135
G1 X24.891 Y27.997 E1.26713
G1 X24.648 Y28.319 E1.27865
G1 X24.267 Y28.659 E1.29319
G1 X24.267 Y28.885 E1.29962
G1 X23.875 Y29.092 E1.31226
G1 X23.553 Y29.197 E1.32192
G1 X23.553 Y29.007 E1.32734
G1 X23.110 Y29.094 E1.34021
G1 X22.839 Y29.099 E1.34794
G1 X22.839 Y29.281 E1.35312
G1 X22.623 Y29.276 E1.35928
G1 X22.217 Y29.200 E1.37105
G1 X22.125 Y29.166 E1.37385
G1 X22.125 Y28.970 E1.37945
G1 X21.923 Y28.898 E1.38555
G1 X21.692 Y28.771 E1.39307
G1 X21.569 Y28.701 E1.39709
G1 X21.411 Y28.574 E1.40289
G1 X21.411 Y28.813 E1.40968
G1 X21.124 Y28.580 E1.42021
G1 X20.844 Y28.263 E1.43226
G1 X20.696 Y28.026 E1.44022
G1 X20.696 Y27.597 E1.45243
G1 X20.625 Y27.422 E1.45783
G1 X20.542 Y27.026 E1.46936
G1 X20.527 Y26.621 E1.48090
G1 X20.582 Y26.220 E1.49244
G1 X20.696 Y25.864 E1.50310
G1 X20.696 Y25.440 E1.51521
G1 X20.912 Y25.127 E1.52602
G1 X21.205 Y24.823 E1.53807
G1 X21.411 Y24.669 E1.54538
G1 X21.411 Y24.897 E1.55187
G1 X21.771 Y24.657 E1.56421
G1 X22.125 Y24.504 E1.57519
G1 X22.125 Y24.313 E1.58063
G1 X22.333 Y24.249 E1.58684
G1 X22.742 Y24.191 E1.59862
G1 X22.839 Y24.193 E1.60138
G1 X22.839 Y24.380 E1.60669
G1 X23.081 Y24.381 E1.61358
G1 X23.553 Y24.473 E1.62730
G1 X23.553 Y24.277 E1.63288
G1 X23.976 Y24.430 E1.64570
G1 X24.267 Y24.598 E1.65528
G1 X24.267 Y24.821 E1.66164
G1 X24.530 Y25.034 E1.67129
G1 X24.704 Y25.232 E1.67881
G1 X24.797 Y25.339 E1.68283
G1 X24.981 Y25.642 E1.69294
G1 X24.981 Y25.024 E1.71054
G10 ; retract
G92 E0
G1 X23.553 Y43.316 F6000.000
G11 ; unretract
G92 E0
G1 F1800
G1 X23.553 Y43.936 E0.01769
G1 X23.608 Y43.818 E0.02141
G1 X23.853 Y43.496 E0.03292
G1 X24.267 Y43.134 E0.04861
G1 X24.267 Y42.910 E0.05500
G1 X24.638 Y42.721 E0.06685
G1 X24.981 Y42.612 E0.07713
G1 X24.981 Y42.802 E0.08253
G1 X25.392 Y42.726 E0.09444
G1 X25.695 Y42.722 E0.10308
G1 X25.695 Y42.540 E0.10825
G1 X25.882 Y42.545 E0.11357
G1 X26.297 Y42.625 E0.12562
G1 X26.410 Y42.667 E0.12904
G1 X26.410 Y42.863 E0.13463
G1 X26.579 Y42.925 E0.13976
G1 X26.918 Y43.114 E0.15084
G1 X27.124 Y43.276 E0.15830
G1 X27.124 Y43.037 E0.16510
G1 X27.392 Y43.260 E0.17504
G1 X27.663 Y43.572 E0.18681
G1 X27.838 Y43.857 E0.19635
G1 X27.838 Y46.609 E0.27479
G1 X27.405 Y46.292 F6000.000
G1 F1800
G1 X27.405 Y44.169 E0.33531
G1 X27.233 Y43.887 E0.34472
G1 X27.069 Y43.700 E0.35181
G1 X27.069 Y46.470 E0.43078
G1 X26.734 Y46.753 E0.44329
G1 X26.734 Y43.408 E0.53865
G1 X26.398 Y43.227 E0.54951
G1 X26.398 Y46.934 E0.65518
G1 X26.062 Y47.044 E0.66524
G1 X26.062 Y43.118 E0.77714
G1 X25.766 Y43.070 E0.78569
G1 X25.727 Y43.069 E0.78682
G1 X25.727 Y47.093 E0.90151
G1 X25.391 Y47.085 E0.91108
G1 X25.391 Y43.076 E1.02533
G1 X25.055 Y43.141 E1.03508
G1 X25.055 Y47.020 E1.14562
G1 X24.720 Y46.890 E1.15588
G1 X24.720 Y43.270 E1.25904
G1 X24.384 Y43.478 E1.27028
G1 X24.384 Y46.680 E1.36155
G1 X24.212 Y46.540 E1.36787
G1 X24.049 Y46.355 E1.37491
G1 X24.049 Y43.806 E1.44757
G1 X23.910 Y43.990 E1.45415
G1 X23.744 Y44.309 E1.46438
G1 X23.713 Y44.421 E1.46769
G1 X23.713 Y46.128 E1.51634
G1 X23.553 Y46.840 F6000.000
G1 F1800
G1 X23.553 Y46.240 E1.53344
G1 X23.703 Y46.487 E1.54167
G1 X23.971 Y46.791 E1.55321
G1 X24.267 Y47.030 E1.56406
G1 X24.267 Y47.245 E1.57021
G1 X24.537 Y47.398 E1.57904
G1 X24.934 Y47.543 E1.59109
G1 X24.981 Y47.552 E1.59247
G1 X24.981 Y47.360 E1.59794
G1 X25.422 Y47.440 E1.61070
G1 X25.695 Y47.440 E1.61850
G1 X25.695 Y47.627 E1.62384
G1 X26.190 Y47.566 E1.63804
G1 X26.410 Y47.495 E1.64462
G1 X26.410 Y47.301 E1.65013
G1 X26.730 Y47.160 E1.66012
G1 X26.956 Y47.023 E1.66764
G1 X27.124 Y46.890 E1.67375
G1 X27.124 Y47.324 E1.68611
G10 ; retract
G92 E0
G1 X75.687 Y46.837 F6000.000
G11 ; unretract
G92 E0
G1 F1800
G1 X75.687 Y46.236 E0.01713
G1 X75.840 Y46.487 E0.02551
G1 X76.107 Y46.791 E0.03705
G1 X76.401 Y47.027 E0.04780
G1 X76.401 Y47.244 E0.05397
G1 X76.673 Y47.398 E0.06288
G1 X77.070 Y47.543 E0.07493
G1 X77.115 Y47.551 E0.07624
G1 X77.115 Y47.359 E0.08172
G1 X77.558 Y47.440 E0.09456
G1 X77.829 Y47.440 E0.10228
G1 X77.829 Y47.627 E0.10762
G1 X78.326 Y47.566 E0.12190
G1 X78.543 Y47.496 E0.12839
G1 X78.543 Y47.303 E0.13390
G1 X78.867 Y47.160 E0.14397
G1 X79.092 Y47.023 E0.15149
G1 X79.257 Y46.893 E0.15750
G1 X79.257 Y47.326 E0.16985
G1 X79.426 Y46.443 F6000.000
G1 F1800
G1 X79.426 Y43.980 E0.24008
G1 X79.369 Y43.887 E0.24318
G1 X79.090 Y43.584 E0.25491
G1 X79.090 Y46.579 E0.34026
G1 X78.898 Y46.736 E0.34735
G1 X78.755 Y46.823 E0.35212
G1 X78.755 Y43.342 E0.45136
G1 X78.570 Y43.241 E0.45735
G1 X78.419 Y43.186 E0.46194
G1 X78.419 Y46.979 E0.57006
G1 X78.083 Y47.067 E0.57995
G1 X78.083 Y43.097 E0.69309
G1 X77.748 Y43.068 E0.70269
G1 X77.748 Y47.095 E0.81748
G1 X77.412 Y47.067 E0.82708
G1 X77.412 Y43.095 E0.94031
G1 X77.076 Y43.180 E0.95019
G1 X77.076 Y46.981 E1.05851
G1 X76.920 Y46.925 E1.06324
G1 X76.741 Y46.827 E1.06906
G1 X76.741 Y43.334 E1.16861
G1 X76.592 Y43.425 E1.17357
G1 X76.405 Y43.577 E1.18043
G1 X76.405 Y46.587 E1.26623
G1 X76.120 Y46.281 E1.27817
G1 X76.070 Y46.198 E1.28091
G1 X76.070 Y43.956 E1.34481
G1 X75.881 Y44.309 E1.35621
G1 X75.776 Y44.638 E1.36606
G1 X75.734 Y44.945 E1.37488
G1 X75.734 Y45.876 E1.40142
G1 X75.687 Y43.318 F6000.000
G1 F1800
G1 X75.687 Y43.942 E1.41919
G1 X75.745 Y43.818 E1.42310
G1 X75.989 Y43.496 E1.43461
G1 X76.401 Y43.136 E1.45021
G1 X76.401 Y42.912 E1.45660
G1 X76.774 Y42.721 E1.46854
G1 X77.115 Y42.613 E1.47874
G1 X77.115 Y42.803 E1.48414
G1 X77.529 Y42.726 E1.49613
G1 X77.829 Y42.721 E1.50469
G1 X77.829 Y42.540 E1.50986
G1 X78.018 Y42.545 E1.51526
G1 X78.433 Y42.625 E1.52731
G1 X78.543 Y42.666 E1.53065
G1 X78.543 Y42.862 E1.53624
G1 X78.715 Y42.925 E1.54145
G1 X78.946 Y43.052 E1.54897
G1 X79.069 Y43.122 E1.55300
G1 X79.257 Y43.274 E1.55990
G1 X79.257 Y43.035 E1.56670
G1 X79.528 Y43.260 E1.57674
G1 X79.799 Y43.572 E1.58851
G1 X79.972 Y43.853 E1.59791
G1 X79.972 Y46.613 E1.67658
G10 ; retract
G92 E0
G1 X82.114 Y28.878 F6000.000
G11 ; unretract
G92 E0
G1 F1800
G1 X82.114 Y28.427 E0.01286
G1 X81.809 Y28.680 E0.02417
G1 X81.400 Y28.905 E0.03747
G1 X81.400 Y29.108 E0.04325
G1 X81.043 Y29.223 E0.05393
G1 X80.686 Y29.276 E0.06423
G1 X80.686 Y29.093 E0.06946
G1 X80.275 Y29.097 E0.08116
G1 X79.972 Y29.049 E0.08992
G1 X79.972 Y29.234 E0.09521
G1 X79.787 Y29.200 E0.10057
G1 X79.390 Y29.055 E0.11262
G1 X79.257 Y28.980 E0.11695
G1 X79.257 Y28.769 E0.12297
G1 X79.139 Y28.701 E0.12685
G1 X78.824 Y28.448 E0.13839
G1 X78.543 Y28.122 E0.15064
G1 X78.543 Y28.652 E0.16575
G1 X78.755 Y28.073 F6000.000
G1 F1800
G1 X78.755 Y25.666 E0.23437
G1 X78.966 Y25.382 E0.24445
G1 X79.090 Y25.261 E0.24939
G1 X79.090 Y28.218 E0.33365
G1 X79.334 Y28.414 E0.34258
G1 X79.426 Y28.466 E0.34558
G1 X79.426 Y25.011 E0.44407
G1 X79.761 Y24.850 E0.45468
G1 X79.761 Y28.627 E0.56233
G1 X80.097 Y28.719 E0.57226
G1 X80.097 Y24.758 E0.68517
G1 X80.274 Y24.729 E0.69027
G1 X80.433 Y24.726 E0.69480
G1 X80.433 Y28.753 E0.80959
G1 X80.768 Y28.730 E0.81918
G1 X80.768 Y24.750 E0.93264
G1 X80.961 Y24.783 E0.93821
G1 X81.104 Y24.832 E0.94252
G1 X81.104 Y28.649 E1.05131
G1 X81.439 Y28.500 E1.06178
G1 X81.439 Y24.981 E1.16206
G1 X81.589 Y25.066 E1.16698
G1 X81.775 Y25.215 E1.17376
G1 X81.775 Y28.263 E1.26066
G1 X81.957 Y28.091 E1.26779
G1 X82.111 Y27.897 E1.27486
G1 X82.111 Y25.584 E1.34078
G1 X82.266 Y25.839 E1.34928
G1 X82.393 Y26.161 E1.35914
G1 X82.446 Y26.424 E1.36680
G1 X82.446 Y27.600 E1.40033
G1 X82.828 Y28.055 F6000.000
G1 F1800
G1 X82.828 Y25.815 E1.46419
G1 X82.737 Y25.589 E1.47112
G1 X82.516 Y25.229 E1.48317
G1 X82.239 Y24.910 E1.49521
G1 X82.114 Y24.807 E1.49982
G1 X82.114 Y25.050 E1.50674
G1 X81.785 Y24.779 E1.51887
G1 X81.400 Y24.570 E1.53137
G1 X81.400 Y24.375 E1.53693
G1 X81.150 Y24.282 E1.54453
G1 X80.686 Y24.201 E1.55797
G1 X80.686 Y24.386 E1.56326
G1 X80.246 Y24.383 E1.57581
G1 X79.972 Y24.430 E1.58373
G1 X79.972 Y24.239 E1.58917
G1 X79.500 Y24.375 E1.60317
G1 X79.257 Y24.497 E1.61090
G1 X79.257 Y24.708 E1.61691
G1 X79.002 Y24.878 E1.62565
G1 X78.804 Y25.052 E1.63317
G1 X78.543 Y25.356 E1.64460
G1 X78.543 Y24.831 E1.65958
G10 ; retract
G92 E0
G1 X75.687 Y171.757 F6000.000
G11 ; unretract
G92 E0
G1 F1800
G1 X75.687 Y172.398 E0.01825
G1 X75.765 Y172.235 E0.02339
G1 X76.010 Y171.914 E0.03491
G1 X76.401 Y171.568 E0.04978
G1 X76.401 Y171.344 E0.05618
G1 X76.794 Y171.139 E0.06883
G1 X77.115 Y171.037 E0.07842
G1 X77.115 Y171.227 E0.08382
G1 X77.549 Y171.144 E0.09642
G1 X77.829 Y171.138 E0.10440
G1 X77.829 Y170.957 E0.10957
G1 X78.048 Y170.964 E0.11581
G1 X78.454 Y171.043 E0.12760
G1 X78.543 Y171.076 E0.13031
G1 X78.543 Y171.273 E0.13593
G1 X78.735 Y171.343 E0.14175
G1 X78.967 Y171.469 E0.14927
G1 X79.089 Y171.540 E0.15330
G1 X79.257 Y171.675 E0.15945
G1 X79.257 Y171.436 E0.16626
G1 X79.543 Y171.671 E0.17680
G1 X79.820 Y171.989 E0.18883
G1 X79.972 Y172.237 E0.19711
G1 X79.972 Y175.061 E0.27761
G1 X79.761 Y174.340 F6000.000
G1 F1800
G1 X79.761 Y173.236 E0.30909
G1 X79.697 Y172.921 E0.31824
G1 X79.570 Y172.600 E0.32810
G1 X79.426 Y172.363 E0.33598
G1 X79.426 Y174.641 E0.40090
G1 X79.260 Y174.852 E0.40854
G1 X79.090 Y175.014 E0.41524
G1 X79.090 Y171.985 E0.50159
G1 X78.893 Y171.827 E0.50879
G1 X78.755 Y171.748 E0.51333
G1 X78.755 Y175.253 E0.61325
G1 X78.419 Y175.405 E0.62374
G1 X78.419 Y171.596 E0.73230
G1 X78.264 Y171.544 E0.73694
G1 X78.083 Y171.512 E0.74219
G1 X78.083 Y175.488 E0.85554
G1 X77.748 Y175.513 E0.86513
G1 X77.748 Y171.486 E0.97992
G1 X77.577 Y171.490 E0.98477
G1 X77.412 Y171.516 E0.98955
G1 X77.412 Y175.482 E1.10257
G1 X77.267 Y175.456 E1.10677
G1 X77.076 Y175.391 E1.11251
G1 X77.076 Y171.606 E1.22040
G1 X76.741 Y171.764 E1.23098
G1 X76.741 Y175.233 E1.32984
G1 X76.638 Y175.175 E1.33322
G1 X76.405 Y174.988 E1.34172
G1 X76.405 Y172.012 E1.42654
G1 X76.270 Y172.143 E1.43190
G1 X76.070 Y172.404 E1.44128
G1 X76.070 Y174.846 E1.51090
G1 X75.687 Y175.231 F6000.000
G1 F1800
G1 X75.687 Y174.620 E1.52831
G1 X75.860 Y174.904 E1.53779
G1 X76.127 Y175.208 E1.54933
G1 X76.401 Y175.428 E1.55934
G1 X76.401 Y175.650 E1.56564
G1 X76.693 Y175.816 E1.57523
G1 X77.090 Y175.960 E1.58728
G1 X77.115 Y175.965 E1.58799
G1 X77.115 Y175.770 E1.59355
G1 X77.579 Y175.857 E1.60701
G1 X77.829 Y175.858 E1.61414
G1 X77.829 Y176.044 E1.61946
G1 X77.929 Y176.046 E1.62230
G1 X78.347 Y175.983 E1.63435
G1 X78.543 Y175.920 E1.64023
G1 X78.543 Y175.728 E1.64570
G1 X78.887 Y175.578 E1.65640
G1 X79.257 Y175.328 E1.66913
G1 X79.257 Y175.759 E1.68140
G10 ; retract
G92 E0
G1 X27.838 Y175.027 F6000.000
G11 ; unretract
G92 E0
G1 F1800
G1 X27.838 Y172.275 E0.07844
G1 X27.663 Y171.989 E0.08798
G1 X27.392 Y171.678 E0.09975
G1 X27.124 Y171.455 E0.10969
G1 X27.124 Y171.693 E0.11649
G1 X26.932 Y171.540 E0.12349
G1 X26.579 Y171.343 E0.13504
G1 X26.410 Y171.281 E0.14016
G1 X26.410 Y171.085 E0.14575
G1 X26.297 Y171.043 E0.14918
G1 X25.882 Y170.963 E0.16123
G1 X25.695 Y170.958 E0.16654
G1 X25.695 Y171.139 E0.17172
G1 X25.392 Y171.144 E0.18035
G1 X24.981 Y171.219 E0.19227
G1 X24.981 Y171.030 E0.19767
G1 X24.638 Y171.139 E0.20795
G1 X24.267 Y171.327 E0.21980
G1 X24.267 Y171.552 E0.22619
G1 X23.853 Y171.914 E0.24187
G1 X23.608 Y172.235 E0.25339
G1 X23.553 Y172.354 E0.25711
G1 X23.553 Y171.733 E0.27480
G10 ; retract
G92 E0
G1 X23.713 Y174.545 F6000.000
G11 ; unretract
G92 E0
G1 F1800
G1 X23.713 Y172.838 E0.04865
G1 X23.744 Y172.727 E0.05196
G1 X23.910 Y172.408 E0.06219
G1 X24.049 Y172.223 E0.06878
G1 X24.049 Y174.772 E0.14143
G1 X24.212 Y174.958 E0.14847
G1 X24.384 Y175.097 E0.15479
G1 X24.384 Y171.895 E0.24606
G1 X24.720 Y171.688 E0.25730
G1 X24.720 Y175.307 E0.36046
G1 X25.055 Y175.437 E0.37072
G1 X25.055 Y171.559 E0.48126
G1 X25.391 Y171.494 E0.49101
G1 X25.391 Y175.502 E0.60526
G1 X25.727 Y175.510 E0.61483
G1 X25.727 Y171.486 E0.72952
G1 X25.766 Y171.487 E0.73066
G1 X26.062 Y171.535 E0.73920
